X:1
T:Ready
T:Ready
T:Ada Rose Gibbs (1864-1905)
T:Georgiana M. Taylor, 1880
T:Public Domain Courtesy of the Cyber Hymnal™
T:Public Domain Courtesy of the Cyber Hymnal™
C:Ada Rose Gibbs (1864-1905)
Z:Public Domain
Z:Courtesy of the Cyber Hymnal™
%%score ( 1 2 ) ( 3 4 )
L:1/8
Q:1/4=100
M:4/4
K:C
V:1 treble 
V:2 treble 
V:3 bass 
V:4 bass 
V:1
 G [Gc]3 [Gc]2 [GB][Gc] | [Ae]2 A4 ([Ad][Ac]) | [Gc]2 [GB]2 [GA]2 [GB]2 | [Gc]6 ([Gc][Gc]) | %4
w: 1.~Rea- dy! oh, are you|rea- dy, If~the *|Lord should come to-|day? Are~you *|
w: 2.~Rea- dy! oh, are you|rea- dy? Chris- *|tian, this speaks to|you; For~the *|
w: 3.~Rea- dy! oh, are you|rea- dy? For *|soon He may be|here; Will~He *|
w: 4.~Rea- dy! oh, are you|rea- dy, When~the *|Lord shall call a-|way, No *|
 [Gd]2 [G^c]2 [G=c]2 ([GB][GB]) | [Gd]2 [Ge]2 [Gd]2 (Bc) | ([Gd][GB])G[Gc] [GB]2 [^FA]2 | G6 GG | %8
w: shel- tered un- der~the *|sprin- kled blood That *|takes * all sin a- way?|* Or are|
w: Lord’s own child, tho’ *|safe, may be A- *|shamed * to meet Him, too.|* Will He|
w: find you loy- al~and *|true to Him, Or *|coward- * ly~and full of fear?|* Will~He find|
w: i- dol chain- ing~you *|down to earth But *|ready * to go to- day?|* For~it may|
 [FA]2 ([FA][FA]) [FA]2 [FA]2 | [FB]2 [FB]4 ([FB][FB]) | [Gc]2 ([Gc][Gc]) [Gc]2 [Gc]2 | %11
w: you~still fear- * ing, doubt-|ing, And lin- *|gering~out- side * the door,|
w: find~you watch- * ing, pray-|ing, In~the day *|when~He comes * a- gain?|
w: you~en- dur- * ing hard-|ness As~a faith- *|ful sol- * dier must,|
w: be~that He * is com-|ing Be- fore *|the ev- * ening fall;|
 [Bd]6 [Bd]2 | [Bd]2 [Bd][Bd] (de) ([Ad][Ac]) | [GB]2 [^Fc]2 [Gd]2 ([Gd][Gd]) | %14
w: Which when|once He comes will~be * closed *|to you, If~you en- *|
w: Or are|you a- sleep while * o- *|thers weep For~the sorrows *|
w: Con- tent|to tre- ad where~the * Lord *|has led In~a life *|
w: But whe-|ther at noon or * mid- *|night Be rea- dy *|
 ([Fd][Fd]) [FG]2 [Fd]2 [Fd]2 | [Ec]6 z2 |] %16
w: ter * not be- fore?||
w: and * sins of men?||
w: of * sim- ple trust?||
w: when * He shall call.||
V:2
 G x7 | x2 A4 x2 | x8 | x8 | x8 | x6 G2 | x2 G x5 | G6 (GG) | x8 | x8 | x8 | x8 | x4 A2 x2 | x8 | %14
 x8 | x8 |] %16
V:3
 [CE] [CE]3 [CE]2 [CE][CE] | [F,D]2 [F,D]4 ([F,D][F,D]) | [G,E]2 [G,C]2 [G,C]2 [G,D]2 | %3
 [CE]6 ([CE][CE]) | [G,F]2 [G,E]2 [G,_E]2 ([G,D][G,D]) | [G,B,]2 [G,C]2 [G,B,]2 D2 | %6
 ([B,D][B,D]) ([CE][CE]) D2 [D,C]2 | [G,B,]6 ([G,B,][G,B,]) | [G,C]2 ([G,C][G,C]) [G,C]2 [G,C]2 | %9
 [G,D]2 [G,D]4 ([G,D][G,D]) | [G,E]2 ([G,E][G,E]) [G,E]2 [G,E]2 | [G,G]6 [G,G]2 | %12
 [D,G]2 [D,G][D,G] [D,^F]2 ([D,F][D,F]) | [G,D]2 [A,D]2 [B,D]2 ([B,D][B,D]) | %14
 ([G,B,][G,B,]) [G,B,]2 [G,B,]2 [G,B,]2 | [C,C]6 z2 |] %16
V:4
 x8 | x8 | x8 | x8 | x8 | x6 (G,A,) | x4 D2 x2 | x8 | x8 | x8 | x8 | x8 | x8 | x8 | x8 | x8 |] %16

